X:1
T:Fantasia in D minor
T:Fantasia in D minor
T:H.195 (Wq.117/15)
T:Carl Philipp Emanuel Bach
T:Public Domain (PianoXML Typeset)
C:Carl Philipp Emanuel Bach
Z:Public Domain (PianoXML Typeset)
%%score { 1 | 2 }
L:1/8
Q:1/4=90
M:4/4
K:F
V:1 treble nm="Piano" snm="Pno."
V:2 bass 
V:1
!f!"^Allegro assai" (3!5!d'/!3!a/!2!f/ (3a/f/d/ (3d'/a/f/ (3a/f/d/ (3!3!e/a/e/ (3!2!^c/e/c/ (3A/!3!c/e/ (3!2!B/!1!A/!3!G/ | %1
 (3!2!F/!3!A/d/ (3!1!A/!2!d/f/ (3!1!d/!2!f/a/ (3!2!f/!3!a/d'/ (3!3!^c'/e'/d'/ (3c'/=b/a/ (3!2!g/_b/a/ (3g/f/!2!e/ | %2
 (3f/a/g/ (3f/e/d/ (3!3!=c/B/A/ (3B/!3!d/g/ (3f/e/d/ (3c/g/!2!B/ (3A/!3!c/f/ (3!3!c/!2!A/F/ | %3
 (3!3!d/f/e/ (3d/!1!c/!3!B/ (3A/G/!2!^F/ (3!1!G/!2!B/e/ (3d/^c/=B/ (3A/e/!1!G/ (3!2!=F/!3!A/d/ (3A/F/D/ | %4
 (3d/!3!_B/A/ (3G/!2!^F/!1!G/ (3d/!3!A/G/ (3=F/E/F/ (3d/!3!G/F/ (3E/D/E/ (3d/!3!F/E/ (3D/^C/D/ | %5
 z (3!5!d/!2!^F/!1!G/ z (3d/E/=F/ z (3d/!2!^D/!1!E/ z (3!2!F/A/=d/ | %6
 (3!3!B/A/G/ (3!3!F/E/=D/ (3!2!^C/!3!D/!5!E/[K:bass] (3!3!B,/A,/=G,/ (3!2!F,/!3!A,/D/ (3E,/!2!G,/!4!^C/ D2 :| %7
V:2
 .!3!D,2 z .D, .^C,.A, z .C, | .D,2 z .D, .A,.A,, z .!4!^C, | .D,2 .G,2 .=C,.E, .F,2 | %3
 .!2!B,2 .E,2 .!1!A,.^C, .D,2 | .!2!B,2 .!1!A,2 .G,2 .F,2 | %5
 (3!3!B,/^C/D/ z (3A,/C/D/ z (3G,/C/D/ z (3!5!F,/A,/D/ z | .!3!G,.^G,.A,.!2!^C, .D,.!2!A,, D,,2 :| %7

